X: 2315
T: Badminton
R: reel
M: 4/4
K: Aminor
|:.c2 ec Bd (3B/A/G|.c2 ec (3BAG A2|.c2 ec Bd (3BAG|.a2 ed (3BAG .A2:|
|:.a2.g .aa d B/c/d|.a2.g .aa G B/c/d|.a2.g .aa d B/A/G|.c2 Bd (3BAG .A2:|

